X: 1
T: Balfa Two-Sep
C: Balfa Bros. arr Rachel Maloney / Rustic Roots
R: two-step
S: Rustic Roots collection 2020-7-26
Z: 2020 John Chambers <jc:trillian.mit.edu>
P: Straight 1/8ths
M: 4/4
L: 1/8
K: Amix
|: "A"E2F2 A3E- | EE F2 A4 | (v=c^c)cc (=c^c)cc | (v=c/B/)A F^c (=c/B/)A FA |
|  "A"E2F2 A3E- | EE F2 A4 | (v=c^c)cc (=c^c)cc | (v=c/B/)A FE A4 :|
|: "G"gfed cBAg- | "D"gfed cBAg- | "A"gfed cBAc | (=c/B/)A FE A4 :|
